X:1
T:Musikalisches Würfelspiel
T:Musikalisches Würfelspiel, K.516f
T:Wolfgang Amadeus Mozart
T:Table de Musique.
%%score { 1 | ( 2 3 ) }
L:1/8
M:3/8
K:C
V:1 treble nm="Piano" snm="Pno."
V:2 bass 
V:3 bass 
V:1
 fdg || A^F/G/B/g/ || gce || g Td2 || [GBdg]2 z || Gce || e/c/e/f/c'/g/ || c2 z || [ce][Bd] z || %9
 B/A/B/c/d/B/ || e/c/B/A/G/^F/ || [Ec][Ec][Ec] || (cGE) || c2 z || eg/e/c || (a^fd) || %16
 c/G/c/e/G/c/ || (Gce) || e/c/eg || gb/d'/d || c/e/g/d/A/^f/ || ecG || f/e/d/e/f/g/ || [GBdg]2 z || %24
 D/^F/A/d/^f/a/ || [ce][ce][ce] || f/e/f/d/c/B/ || ^f/d/c/a/f/d/ || B/d/g/d/B || [GBdg]2 z || %30
 e/c/G e || Gce || [GBdg]2 z || e/c/d/B/G || Ad^f || D/^F/A/d/^f/a/ || g/b/g/d/B || cGe || gGG || %39
 c/B/c/e/G/c/ || c/B/c/e/G || B/c/d/B/A/G/ || gf/e/d/c/ || Af/d/A/B/ || c/B/c/G/E/C/ || %45
 gb/g/d/B/ || gg/d/b || ec/e/g/c'/ || (ecG) || ce/c/G || c/G/e/c/g/e/ || (d/^c/)d/f/G/B/ || %52
 [ce][ce]/[df]/[eg] || [Ec][Ec][Ec] || gbd || d/B/G z || ecG || gec || gce || gf/e/d/c/ || %60
 ce/c/G || e/c/B/G/A/^F/ || e/c/B/c/G || e/g/c'/g/e/c/ || d/G/d^f || ^faf || c/B/c/e/G/c/ || %67
 gb/g/d/g/ || (geB) || ^fa/f/d/f/ || g/b/d'/b/g || f/e/d/c/B/d/ || gec || d'/b/c'/g/e/c/ || %74
 [d^f][df][df] || c'/b/c'/g/e/c/ || g/b/gd || cC z || d2 z || d!turn!A^f || [GBdg]2 z || d/B/G g || %82
 c2 z || c/G/e/c/g/e/ || ceB || cd/g/b || gce || g/d/g/b/g/d/ || g/e/dg || ^f/a/d'/a/f/a/ || %90
 [GBdg]2 z || [Bd]g/b/d || c2 z || [GBdg]2 z || gec || ecG || g/^f/g/d/B/G/ || cGe || ^fad || %99
 [GBdg]2 z || e/d/e/g/c'/g/ || ^g/d/cf || c/e/c/A/E || e/d/e/g/c'/g/ || ^fa/f/d/f/ || Ad/c/B/A/ || %106
 [GBdg]2 z || (egc') || d/f/d/f/B/d/ || ([Ad]/[Ac]/)([Ac]/[GB]/)([GB]/[^FA]/) || e2 z || ecG || %112
 fdB || [Bd][Bd][Bd] || c/G/e/c/g/e/ || d/f/a/f/d/B/ || d/A/d/^f/a/f/ || e/a/g/b/^f/a/ || %118
 e/c/g/e/c'/g/ || d'a/^f/d/A/ || gb/g/d || g/^f/g/b/d || [GBdg]2 z || [Ac][Ac][Ac] || g/e/d/d/G || %125
 c/G/c/e/g/[ce]/ || [GBdg]2 z || Bdg || a/g/^f/g/d || [Ec][Ec][Ec] || c2 z || [ce][Bd]/[GB]/G || %132
 dg/d/B/d/ || A/e/[Bd]/[Ac]/[GB]/[^FA]/ || ^ff/d/a || c'/b/c'/g/f/c/ || cGe || [Ad^f] Tf2 || %138
 g/b/g/b/d || AA/d/^f || d/e/f/d/c/B/ || cGe || gd/B/G || gce || d/f/A/d/B/d/ || [^Fd][d^f][fa] || %146
 e/c'/b/g/a/^f/ || c'/b/c'/g/e/c/ || f/d/cd || [Gce] Te2 || c2 z || gf/e/d/c/ || d/A/^f/d/a/f/ || %153
 d/^c/d/^f/a/f/ || g/b/g/d/B/G/ || c/G/e/c/g || e/d/e/g/c'/g/ || Bd/B/A/G/ || e/g/d/c/B/A/ || %159
 c/B/c/e/G/c/ || [^Fc][Fc][Fc] || e/d/e/g/c'/g/ || g/^f/^g/d/B/G/ || d G2 || (dBG) || d/b/g/d/B || %166
 cc/d/e || gf/e/d/c/ || e/g/d/g/A/^f/ || c2 z || B/c/d/e/f/d/ || c2 z || f/a/ A B/d/ || Gce || %174
 e/c/B/d/d || a/g/b/g/d/g/ || %176
V:2
 G,D,G, || [B,,G,]2 z || [C,E,]2 z || G,,/B,,/G,B,, || G,,B,/G,/^F,/E,/ || [C,E,]2 z || %6
 [C,G,]2 z || C,G,,C,, || G,2 G,, || G,2 z || C,D,D,, || C,C,C, || [E,G,]2 z || C,G,,C,, || %14
 [C,G,]2 [C,E,] || [D,^F,]2 [C,F,] || [E,G,]2 z || [C,E,]2 [C,G,] || [C,G,]2 [C,E,] || B,,2 z || %20
 C,D,D,, || C,2 z || F,/E,/D,/E,/F,/G,/ || G,,B,/G,/^F,/E,/ || D,2 C, || C,/E,/G,/E,/C/C,/ || %26
 [G,B,]2 z || [C,A,]2 z || G,2 G,, || G,,B,/G,/^F,/E,/ || [C,G,]2 [C,G,] || [C,E,]2 z || %32
 G,,B,/G,/^F,/E,/ || G,2 z || [D,^F,]2 [C,A,] || C,D,D,, || [B,,D,]2 z || %37
 [C,E,]/G,/[C,E,]/G,/[C,E,]/G,/ || B,,/D,/G,/D,/B,,/G,,/ || [C,E,]2 z || [C,E,]2 z || [C,E,]2 z || %42
 [C,E,]2 z || F,2 G, || [E,G,]2 z || [B,,D,]2 z || [B,,D,]2 z || [C,G,]2 [C,E,] || %48
 [C,E,]/G,/[C,E,]/G,/[C,E,]/G,/ || [E,G,]2 z || [C,E,]2 z || F,2 G, || C,2 z || C,C,C, || %54
 [B,,D,]2 z || [G,,G,]2 G, || [C,E,]/G,/[C,E,]/G,/[C,E,]/G,/ || [C,E,]/G,/[C,E,]/G,/[C,E,]/G,/ || %58
 [C,E,]/G,/[C,E,]/G,/[C,E,]/G,/ || [C,E,]2 z || [E,G,]2 z || C,D,D,, || C,2 z || [C,G,]2 [C,G,] || %64
 [D,^F,]2 z || A,^F,D, || E,2 [E,G,] || B,,2 z || [C,E,]2 z || D,2 C, || [B,,D,]2 [B,,D,] || %71
 F,2 G, || [C,E,]/G,/[C,E,]/G,/[C,E,]/G,/ || E,2 z || C,C,C, || [C,E,]2 [C,G,] || %76
 [B,,D,]2 [B,,G,] || C,2 C,, || C,G,,C,, || C,2 z || G,,B,/G,/^F,/E,/ || G,2 [B,,D,] || C,G,,C,, || %83
 [C,E,]2 z || [E,G,]2 z || [B,,G,]2 z || [C,E,]2 [C,G,] || [B,,D,]2 [B,,D,] || F,/E,/D,G, || %89
 [C,A,]2 [C,A,] || G,,B,/G,/^F,/E,/ || [G,,G,]2 G, || C,G,,C,, || G,,B,/G,/^F,/E,/ || E,2 z || %95
 C,2 z || [B,,D,]2 [B,,G,] || [C,E,]/G,/[C,E,]/G,/[C,E,]/G,/ || [C,A,]2 [C,A,] || %99
 G,,B,/G,/^F,/E,/ || G,2 E, || [C,A,]2 [C,A,] || [E,G,]2 z || C,2 z || C,2 z || C,D,D,, || %106
 G,,B,/G,/^F,/E,/ || [C,G,]2 [C,E,] || [F,A,]2 [E,D] || C,D,D,, || C,G,,C,, || %111
 [C,E,]/G,/[C,E,]/G,/[C,E,]/G,/ || [G,B,]2 z || G,G,G, || [C,E,]2 z || F,2 G, || [D,^F,]2 z || %117
 C,D,D,, || [C,E,]2 z || [D,^F,]2 [C,F,] || [B,,G,]2 z || [B,,D,][B,,D,][B,,D,] || %122
 G,,B,/G,/^F,/E,/ || C,C,C, || G,G,, z || E,2 E,/C,/ || G,,B,/G,/^F,/E,/ || G,,2 z || %128
 [B,,D,][B,,D,][B,,G,] || C,C,C, || C,G,,C,, || G,G,, z || [B,,G,]2 z || C,D,D,, || D,D,D, || %135
 E,2 z || [C,E,]/G,/[C,E,]/G,/[C,E,]/G,/ || D,,/D,/^C,/D,/=C,/D,/ || B,,2 z || %139
 [C,^F,][C,F,][C,A,] || [B,,G,]2 G,, || [C,E,]2 z || [B,,D,]2 [B,,D,] || %143
 [C,E,]/G,/[C,E,]/G,/[C,E,]/G,/ || F,2 G, || C,C,C, || C,D,D,, || [C,E,]2 z || F,2 G, || %149
 C,/B,,/C,/D,/E,/^F,/ || C,G,,C,, || [C,E,]2 z || C,2 z || C,2 z || [B,,D,]2 z || [E,G,]2 z || %156
 C,2 z || G,,2 z || C,D,D,, || [C,E,]2 [C,E,] || C,C,C, || [C,G,]2 [C,E,] || [B,,D,]2 z || %163
 G,/^F,/G,/D,/B,,/G,,/ || B,,2 z || [G,B,]2 z || [C,E,]2 z || [C,E,]2 [E,G,] || C,F,D,, || %169
 C,G,,C,, || [G,,G,]2 [B,,G,] || C,G,,C,, || F,2 G, || [C,E,]/G,/[C,E,]/G,/[C,E,]/G,/ || G,G,, z || %175
 [B,,D,]2 [B,,D,] || %176
V:3
 x3 || x3 || x3 || x3 || G,,G,/=F,/E,/D,/ || x3 || x3 || x3 || x3 || x3 || x3 || x3 || x3 || x3 || %14
 x3 || x3 || x3 || x3 || x3 || x3 || x3 || x3 || x3 || G,,G,/=F,/E,/D,/ || x3 || x3 || x3 || x3 || %28
 x3 || G,,G,/=F,/E,/D,/ || x3 || x3 || G,,G,/=F,/E,/D,/ || x3 || x3 || x3 || x3 || x3 || x3 || %39
 x3 || x3 || x3 || x3 || x3 || x3 || x3 || x3 || x3 || x3 || x3 || x3 || x3 || x3 || x3 || x3 || %55
 x3 || x3 || x3 || x3 || x3 || x3 || x3 || x3 || x3 || x3 || D,D,C, || C,2 x || x3 || x3 || x3 || %70
 x3 || x3 || x3 || C,2 x || x3 || x3 || x3 || x3 || x3 || x3 || G,,G,/=F,/E,/D,/ || B,,2 x || x3 || %83
 x3 || x3 || x3 || x3 || x3 || x3 || x3 || G,,G,/=F,/E,/D,/ || x3 || x3 || G,,G,/=F,/E,/D,/ || %94
 C,2 x || x3 || x3 || x3 || x3 || G,,G,/=F,/E,/D,/ || C,2 C, || x3 || x3 || x3 || x3 || x3 || %106
 G,,G,/=F,/E,/D,/ || x3 || x3 || x3 || x3 || x3 || x3 || x3 || x3 || x3 || x3 || x3 || x3 || x3 || %120
 x3 || x3 || G,,G,/=F,/E,/D,/ || x3 || x3 || x3 || G,,G,/=F,/E,/D,/ || x3 || x3 || x3 || x3 || %131
 x3 || x3 || x3 || C,C,C, || C,2 x || x3 || x3 || x3 || x3 || x3 || x3 || x3 || x3 || x3 || x3 || %146
 x3 || x3 || x3 || x3 || x3 || x3 || x3 || x3 || x3 || x3 || x3 || x3 || x3 || x3 || x3 || x3 || %162
 x3 || x3 || x3 || x3 || x3 || x3 || x3 || x3 || x3 || x3 || x3 || x3 || x3 || x3 || %176

